svg/l/SV.svg

<svg width="32" height="24" viewBox="0 0 32 24" fill="none" xmlns="http://www.w3.org/2000/svg">
<g clip-path="url(#clip0_270_67553)">
<rect width="32" height="24" fill="white"/>
<path fill-rule="evenodd" clip-rule="evenodd" d="M0 0V24H32V0H0Z" fill="#F7FCFF"/>
<mask id="mask0_270_67553" style="mask-type:luminance" maskUnits="userSpaceOnUse" x="0" y="0" width="32" height="24">
<path fill-rule="evenodd" clip-rule="evenodd" d="M0 0V24H32V0H0Z" fill="white"/>
</mask>
<g mask="url(#mask0_270_67553)">
<path fill-rule="evenodd" clip-rule="evenodd" d="M0 0V8H32V0H0Z" fill="#3D58DB"/>
<path fill-rule="evenodd" clip-rule="evenodd" d="M0 16V24H32V16H0Z" fill="#3D58DB"/>
<path d="M19.4254 11.8582C19.4254 13.8695 17.7949 15.5 15.7836 15.5C13.7723 15.5 12.1418 13.8695 12.1418 11.8582C12.1418 9.84685 13.7723 8.21637 15.7836 8.21637C17.7949 8.21637 19.4254 9.84685 19.4254 11.8582Z" stroke="#E8AA00"/>
<path fill-rule="evenodd" clip-rule="evenodd" d="M13.8107 9.66223C13.8107 9.66223 12.8582 11.2299 12.8582 12.3061C12.8582 13.3823 13.9983 14.735 15.7922 14.735C17.542 14.735 18.7997 13.6898 18.8377 12.3061C18.8758 10.9224 17.8964 9.93741 17.8964 9.93741C17.8964 9.93741 18.4507 11.9295 18.1736 12.7367C17.8964 13.544 16.9994 14.5206 15.7922 14.3963C14.585 14.272 13.4394 12.7861 13.4394 12.3061C13.4394 11.8261 13.8107 9.66223 13.8107 9.66223Z" fill="#1E601B"/>
<path d="M14.1605 12.3283H17.3678" stroke="#188396"/>
<path d="M14.459 11.8059H17.2185" stroke="#E8AA00"/>
<path d="M17.0496 12.4112H14.5934L15.8327 10.3548L17.0496 12.4112Z" stroke="#E8AA00"/>
</g>
</g>
<defs>
<clipPath id="clip0_270_67553">
<rect width="32" height="24" fill="white"/>
</clipPath>
</defs>
</svg>

<svg width="32" height="24" fill="none" xmlns="http://www.w3.org/2000/svg">
  <mask id="a" maskUnits="userSpaceOnUse" x="0" y="0" width="32" height="24">
    <path fill="#fff" d="M0 0h32v24H0z"/>
  </mask>
  <g mask="url(#a)">
    <path fill-rule="evenodd" clip-rule="evenodd" d="M0 0v24h32V0H0z" fill="#F7FCFF"/>
    <mask id="b" maskUnits="userSpaceOnUse" x="0" y="0" width="32" height="24">
      <path fill-rule="evenodd" clip-rule="evenodd" d="M0 0v24h32V0H0z" fill="#fff"/>
    </mask>
    <g mask="url(#b)">
      <path fill-rule="evenodd" clip-rule="evenodd" d="M0 0v8h32V0H0zm0 16v8h32v-8H0z" fill="#3D58DB"/>
      <path d="M19.425 11.858a3.642 3.642 0 11-7.283 0 3.642 3.642 0 017.283 0z" stroke="#E8AA00"/>
      <path fill-rule="evenodd" clip-rule="evenodd" d="M13.81 9.662s-.952 1.568-.952 2.644 1.14 2.429 2.934 2.429c1.75 0 3.008-1.045 3.046-2.429.038-1.384-.942-2.369-.942-2.369s.555 1.993.278 2.8c-.278.807-1.175 1.784-2.382 1.66-1.207-.125-2.353-1.61-2.353-2.09 0-.48.372-2.645.372-2.645z" fill="#1E601B"/>
      <path d="M14.16 12.328h3.208" stroke="#188396"/>
      <path d="M14.459 11.806h2.76m-.169.605h-2.457l1.24-2.056 1.217 2.056z" stroke="#E8AA00"/>
    </g>
  </g>
</svg>
